src/assets/images/line-highlight.svg

<svg width="597" height="13" viewBox="0 0 597 13" fill="none" xmlns="http://www.w3.org/2000/svg">
<path d="M318.432 7.50366C337.758 7.39815 356.362 7.8031 375.762 7.74023C399.83 7.66203 424.29 7.13365 448.437 7.10998C461.055 7.09772 473.674 7.09014 486.337 7.07978C497.776 7.06996 509.117 7.05842 520.528 7.03476C544.587 6.88112 568.711 7.23798 592.496 6.0969C593.294 6.02147 594.205 5.90525 594.574 5.74487C594.614 5.72845 594.639 5.71622 594.638 5.71743C594.632 5.72659 594.606 5.71643 594.436 5.88816C594.344 6.00081 594.19 6.13571 594.095 6.58717C594.01 7.03363 594.192 7.48419 594.358 7.68805C594.625 8.00859 594.705 7.98932 594.734 8.01571C594.777 8.02566 594.482 7.93011 594.247 7.88344C593.744 7.7754 593.164 7.68982 592.583 7.61317C591.438 7.46387 590.248 7.34749 589.059 7.24086C586.649 7.02783 584.296 6.86261 581.874 6.70403C577.05 6.3916 572.3 6.13468 567.439 5.88591C553.969 5.20434 540.421 4.62076 526.92 4.04359C510.613 3.35065 494.259 2.68326 477.963 2.02252C470.801 1.73252 463.656 1.44449 456.503 1.15668C451.16 0.941663 445.826 0.727314 440.485 0.512806C439.743 0.482896 439.032 0.431655 438.509 0.368755C437.985 0.305777 437.691 0.236601 437.693 0.174459C437.696 0.112288 437.997 0.0610986 438.525 0.0303365C439.053 -0.000302513 439.766 -0.00770817 440.509 0.00791879C445.898 0.122093 451.282 0.236151 456.671 0.350815C462.656 0.478225 468.631 0.605729 474.614 0.735067C475.544 1.01911 476.835 1.2526 479.254 1.41297C480.482 1.49461 482.292 1.56885 483.619 1.56263C484.812 1.55703 485.704 1.50878 486.565 1.46316C487.462 1.41531 488.311 1.36984 489.397 1.37834C491.242 1.39284 493.014 1.33993 494.851 1.28375C495.528 1.26356 496.215 1.24294 496.921 1.22511C502.632 1.35311 508.343 1.48343 514.054 1.61719C516.246 1.71532 518.296 1.80414 520 1.84954C521.542 1.89066 522.972 1.88386 524.364 1.86285C525.251 1.8844 526.145 1.90627 527.025 1.92781C532.735 2.06804 538.416 2.21224 544.145 2.36621C548.588 2.59224 553.282 2.82736 559.318 3.09067C561.968 3.20641 564.494 3.34485 567 3.48582C567.181 3.4961 567.361 3.50634 567.54 3.51651C570.999 3.71241 574.257 3.90342 577.131 4.01201C579.141 4.08776 581.266 4.23627 583.383 4.39824C586.258 4.61989 589.039 4.8503 591.661 5.01478C592.471 5.06706 593.255 5.12227 594.033 5.20891C594.44 5.25676 594.8 5.30127 595.223 5.39194C595.452 5.44674 595.645 5.48197 595.973 5.63693C596.069 5.68794 596.126 5.71098 596.284 5.83531C596.353 5.89191 596.426 5.961 596.498 6.05135C596.584 6.15842 596.688 6.33456 596.737 6.53582C596.863 6.95844 596.645 7.46252 596.526 7.59957C596.375 7.80084 596.281 7.86752 596.189 7.94189C595.947 8.12043 595.806 8.18148 595.651 8.25794C593.171 9.14991 591.588 9.08759 589.878 9.26012C586.623 9.4646 583.767 9.63366 581.305 9.78322C578.351 9.95901 575.738 10.0923 573.614 10.0621C573.28 10.0577 572.893 10.0506 572.448 10.0423C570.242 9.99567 566.501 9.91994 561.36 10.0825C559.462 10.1414 557.836 10.2413 556.042 10.341C553.676 10.4828 551.105 10.6216 548.623 10.6047C548.239 10.6023 547.834 10.5777 547.463 10.5552C546.991 10.5267 546.573 10.5017 546.325 10.5306C545.557 10.6157 544.535 10.7116 543.311 10.8168C542.422 10.8939 541.463 10.9757 540.563 11.0602C533.93 11.173 527.231 11.2742 520.51 11.3672C517.504 11.4092 514.396 11.4503 511.33 11.4894C509.799 11.386 508.206 11.294 506.489 11.2278C504.162 11.1418 501.48 11.1287 497.707 11.1122C494.837 11.1006 491.918 11.0837 488.118 11.0343C487.536 11.0266 486.949 11.02 486.359 11.0145C480.227 10.9525 473.883 11.0158 469.786 11.1013C468.828 11.1211 467.858 11.1419 466.814 11.1645C463.038 11.249 458.039 11.3561 448.948 11.4875C440.227 11.6122 432.81 11.6645 427.303 11.7031C424.478 11.7229 422.046 11.7392 420.278 11.7594C417.221 11.7941 413.431 11.8289 409.577 11.8635C403.696 11.9172 397.578 11.9708 394.243 12.0252C393.041 12.0446 391.776 12.0678 390.406 12.0927C386.595 12.1616 382.023 12.2444 375.702 12.3041C369.011 12.367 364.983 12.3519 360.677 12.3051C358.93 12.286 357.4 12.1935 355.829 12.098C353.597 11.9623 351.264 11.8207 348.097 11.8749C347.357 11.8875 346.568 11.9132 345.741 11.94C344.223 11.9893 342.602 12.0427 340.927 12.0266C340.344 12.0209 339.83 11.9961 339.326 11.9717C338.772 11.9449 338.228 11.9187 337.611 11.919C335.31 11.9202 333.059 11.9335 331.07 11.9454C328.51 11.9606 326.359 11.9733 325.024 11.9542C322.645 11.92 320.034 11.9645 317.399 12.0098C315.388 12.0443 313.356 12.0794 311.386 12.0797C305.756 12.0805 298.02 12.173 290.047 12.3127C287.028 12.3655 284.471 12.3123 281.198 12.2439C279.163 12.2014 276.848 12.1528 273.965 12.1205C272.331 12.1022 270.95 12.16 269.671 12.2133C268.493 12.2625 267.402 12.3079 266.283 12.2871C265.295 12.2687 264.672 12.1799 264.077 12.0956C263.413 12.0018 262.788 11.9135 261.745 11.934C261.19 11.9449 260.515 11.9921 259.714 12.0482C259.396 12.0703 259.058 12.0938 258.7 12.1171C258.718 12.0987 258.723 12.0823 258.723 12.0698C258.724 11.982 257.661 11.9387 256.619 11.8963C256.203 11.8794 255.789 11.8627 255.449 11.8432C254.195 11.7717 251.839 11.7661 250.019 11.7747C249.249 11.7783 248.551 11.753 247.738 11.7235C247.016 11.6973 246.203 11.6678 245.167 11.6522C244.577 11.6433 244.123 11.6191 243.749 11.5989C243.477 11.5843 243.247 11.5718 243.033 11.5689C242.847 11.5665 242.698 11.5921 242.53 11.6209C242.409 11.6417 242.278 11.6641 242.116 11.679C241.731 11.7146 241.235 11.7264 240.888 11.7163C240.727 11.7116 240.6 11.7022 240.474 11.6928C240.328 11.6818 240.182 11.6708 239.981 11.6674C239.057 11.6516 238.169 11.6829 237.229 11.7154C236.196 11.7511 235.12 11.7882 233.924 11.7661C233.548 11.7592 233.147 11.742 232.759 11.7252C232.354 11.7078 231.959 11.6909 231.625 11.687C230.265 11.6714 228.989 11.7379 227.818 11.799C227.039 11.8396 226.305 11.8778 225.624 11.8881C224.381 11.9067 223.693 11.9841 223.196 12.0412C222.937 12.0708 222.726 12.0951 222.505 12.1029C222.302 12.1014 222.096 12.0994 221.895 12.0973C221.71 12.0923 221.519 12.0871 221.34 12.0894C221.327 12.0896 221.313 12.09 221.3 12.0902C220.173 12.0751 219.069 12.0523 217.973 12.0296C215.507 11.9786 213.114 11.928 210.529 11.9679C209.971 11.9765 209.404 12.0093 208.827 12.0426C208.121 12.0834 207.399 12.1251 206.665 12.1244C204.915 12.1227 203.155 12.0764 201.429 12.0309C198.856 11.9623 196.251 11.8957 193.907 11.9842C193.131 12.0134 192.376 12.0605 191.62 12.108C191.198 12.1344 190.775 12.1611 190.349 12.1846C190.439 12.1431 190.487 12.1042 190.532 12.068C190.625 11.9933 190.704 11.9294 191.114 11.874C192.082 11.7433 193.184 11.564 193.061 11.436C193.028 11.4012 193.055 11.3623 193.084 11.3232C193.157 11.2249 193.231 11.1246 192.329 11.082C191.721 11.0533 190.162 10.9879 189.175 11.0658C188.96 11.0828 188.829 11.1156 188.684 11.152C188.422 11.2174 188.11 11.2949 187.178 11.3155C187.021 11.319 186.85 11.3222 186.674 11.3253C185.963 11.3375 185.154 11.351 184.855 11.4039C184.51 11.4648 184.584 11.5331 184.67 11.6128C184.782 11.7166 184.916 11.8398 184.172 11.9911C184.025 12.021 183.744 12.032 183.532 12.0403C183.383 12.0461 183.269 12.0508 183.257 12.0597C183.245 12.0699 183.292 12.091 183.353 12.1176C183.568 12.2115 183.939 12.3757 182.388 12.3874C181.969 12.3905 181.49 12.3841 181.061 12.3783C180.429 12.3698 179.905 12.3627 179.835 12.39C179.809 12.4003 179.79 12.4115 179.775 12.4231C179.273 12.4213 178.772 12.4196 178.271 12.4179C177.629 12.3876 176.73 12.3932 175.611 12.4002C175.34 12.4019 175.054 12.4036 174.758 12.405C173.776 12.4013 172.756 12.3979 171.761 12.3942C170.968 12.383 170.127 12.3633 169.242 12.3307C167.469 12.2655 165.935 12.1535 164.445 12.044C163.817 11.9979 163.196 11.9521 162.568 11.9105C162.812 11.9043 163.033 11.8973 163.204 11.888C164.369 11.8246 164.839 11.7058 165.271 11.5963C165.558 11.5235 165.829 11.4549 166.28 11.4097C167.104 11.327 167.022 11.2336 166.961 11.1645C166.929 11.1286 166.905 11.0993 167.015 11.0814C167.104 11.0672 167.308 11.0599 167.52 11.0524C167.704 11.0459 167.895 11.0391 168.017 11.0274C169.499 10.8856 169.053 10.8074 168.404 10.6935C168.047 10.6308 167.629 10.5571 167.438 10.4559C167.273 10.3487 167.328 10.317 168.104 10.2717C167.499 10.2203 166.895 10.169 166.293 10.1177C166.056 10.1219 165.878 10.1558 165.626 10.2118C165.177 10.312 163.718 10.3527 162.586 10.3845C162.053 10.3993 161.578 10.4122 161.314 10.4282C159.907 10.5132 160.318 10.624 160.678 10.7215C160.876 10.7751 161.059 10.8248 160.917 10.8639C160.856 10.8806 160.943 10.8967 161.031 10.9132C161.098 10.9259 161.168 10.9388 161.17 10.9523C161.189 11.0505 160.356 11.1261 159.587 11.1963C159.147 11.2364 158.727 11.275 158.496 11.3149C158.425 11.3271 158.369 11.3395 158.317 11.3515C158.24 11.369 158.165 11.3857 158.048 11.4002C157.782 11.4331 157.233 11.4566 156.633 11.4821C156.326 11.4952 156.005 11.5089 155.702 11.5248C155.31 11.5453 155.169 11.5846 155.02 11.6257C154.915 11.6547 154.805 11.6846 154.603 11.7096C154.236 11.7549 153.497 11.7732 152.814 11.7902C152.517 11.7976 152.229 11.8049 151.987 11.8139C151.889 11.8176 151.841 11.8244 151.831 11.8336C150.733 11.868 149.596 11.9032 148.54 11.9375C143.222 12.1097 138.675 12.2589 131.844 12.1866C130.557 12.173 129.234 12.1814 127.781 12.2015C123.201 12.1799 118.882 12.1566 114.295 12.1341C113.406 12.0491 112.324 11.9791 111.059 11.926C108.756 11.8259 106.096 11.8136 103.215 11.7984C102.14 11.7929 101.014 11.787 99.8245 11.7763C98.5633 11.766 97.2353 11.7509 95.8283 11.7266C91.1913 11.6446 86.2701 11.5809 80.8193 11.5643C75.3702 11.5478 69.2537 11.5499 64.7317 11.5669C62.3679 11.5754 59.806 11.5131 57.4583 11.4558C54.2948 11.374 51.1024 11.3052 49.4209 11.4531C48.8249 11.5009 48.2471 11.5802 47.6959 11.6572C47.3027 11.7121 46.9183 11.7657 46.5447 11.8064C45.5373 11.803 44.6132 11.7992 43.586 11.7962C41.7249 11.7224 39.0925 11.6498 36.3614 11.7769C35.3411 11.7747 34.3565 11.7724 33.3146 11.7709C31.1529 11.7677 28.9779 11.7659 26.9021 11.7651C26.2241 11.7647 25.4558 11.7657 24.7591 11.7661C24.7524 11.7661 24.7457 11.7661 24.739 11.766C23.37 11.7663 21.8419 11.7698 20.4858 11.7725C19.9369 11.7731 19.2461 11.7762 18.654 11.7782C17.1672 11.7829 15.5718 11.7917 14.0581 11.8024C13.218 11.8088 12.4939 11.8139 11.6217 11.8235C10.3231 11.8365 9.02456 11.8526 7.65161 11.8786C5.52987 11.9263 3.38936 11.9481 1.29163 12.1441C0.933042 12.1823 0.623366 12.2196 0.386757 12.2506C0.147978 12.2822 0.00712417 12.2936 0.000234835 12.2644C-0.00649943 12.2366 0.118191 12.1704 0.354261 12.093C0.587493 12.0166 0.902403 11.9486 1.26478 11.9006C3.38497 11.6456 5.52015 11.5685 7.64689 11.4649C9.0232 11.4043 10.3174 11.3539 11.6184 11.3067C12.4923 11.2761 13.2137 11.2505 14.0553 11.2232C15.5684 11.1734 17.1662 11.1257 18.6542 11.0824C19.2472 11.0651 19.9358 11.0468 20.4856 11.0309C21.8469 10.9925 23.3762 10.9535 24.7507 10.918C24.7594 10.9178 24.768 10.9176 24.7766 10.9174C25.4684 10.8997 26.2346 10.8813 26.9048 10.8645C28.983 10.8128 31.1569 10.7625 33.321 10.7143C34.5054 10.6882 35.5952 10.6637 36.7626 10.6388C37.4085 10.6249 38.0651 10.611 38.7212 10.5974C39.0923 10.5899 39.4164 10.583 39.7613 10.5758C47.8154 10.4079 55.8702 10.2594 63.9828 10.1209C72.0533 9.98297 80.2607 9.85531 88.2404 9.73636C92.2525 9.67884 95.8006 9.62529 99.8146 9.57113C103.891 9.5128 108.41 9.45449 112.505 9.39956C163.96 8.73259 215.364 8.21995 266.968 7.83481C274.316 7.77999 281.869 7.72791 289.239 7.67937C296.691 7.63057 303.982 7.5852 311.457 7.54256C313.726 7.52943 316.048 7.51653 318.432 7.50366Z" fill="#6339F0"/>
</svg>

<svg xmlns="http://www.w3.org/2000/svg" width="597" height="13" fill="none"><path fill="#6339f0" d="M318.432 7.504c19.326-.106 37.93.3 57.33.236 24.068-.078 48.528-.606 72.675-.63 12.618-.012 25.237-.02 37.9-.03 11.439-.01 22.78-.022 34.191-.045 24.059-.154 48.183.203 71.968-.938.798-.076 1.709-.192 2.078-.352l.064-.028c-.006.01-.032 0-.202.171-.092.113-.246.248-.341.7a1.46 1.46 0 0 0 .263 1.1c.267.32.347.301.376.328.043.01-.252-.086-.487-.133a22 22 0 0 0-1.664-.27 89 89 0 0 0-3.524-.372c-2.41-.213-4.763-.378-7.185-.537-4.824-.312-9.574-.57-14.435-.818-13.47-.682-27.018-1.265-40.519-1.842a25231 25231 0 0 0-48.957-2.021 84234 84234 0 0 0-37.478-1.51 27 27 0 0 1-1.976-.144c-.524-.063-.818-.132-.816-.195.003-.062.304-.113.832-.144s1.241-.038 1.984-.022l16.162.343c5.985.127 11.96.255 17.943.384.93.284 2.221.518 4.64.678 1.228.082 3.038.156 4.365.15 1.193-.006 2.085-.054 2.946-.1.897-.048 1.746-.093 2.832-.085 1.845.015 3.617-.038 5.454-.094.677-.02 1.364-.041 2.07-.059q8.566.192 17.133.392c2.192.098 4.242.187 5.946.233 1.542.04 2.972.034 4.364.013l2.661.065c5.71.14 11.391.284 17.12.438 4.443.226 9.137.461 15.173.725 2.65.115 5.176.254 7.682.395l.54.03c3.459.196 6.717.387 9.591.496 2.01.076 4.135.224 6.252.386 2.875.222 5.656.452 8.278.617.81.052 1.594.107 2.372.194.407.048.767.092 1.19.183.229.055.422.09.75.245.096.05.153.074.311.198a1.302 1.302 0 0 1 .453.7c.126.423-.092.928-.211 1.065-.151.2-.245.268-.337.342-.242.178-.383.24-.538.316-2.48.892-4.063.83-5.773 1.002-3.255.205-6.111.374-8.573.523-2.954.176-5.567.31-7.691.28l-1.166-.02a198 198 0 0 0-11.088.04c-1.898.058-3.524.158-5.318.258-2.366.142-4.937.28-7.419.264-.384-.003-.789-.027-1.16-.05-.472-.028-.89-.053-1.138-.024-.768.085-1.79.18-3.014.286-.889.077-1.848.159-2.748.243a7596.629 7596.629 0 0 1-29.233.43 166 166 0 0 0-4.841-.262c-2.327-.086-5.009-.1-8.782-.116-2.87-.011-5.789-.028-9.589-.078l-1.759-.02a574 574 0 0 0-16.573.087l-2.972.063c-3.776.085-8.775.192-17.866.324-8.721.124-16.138.177-21.645.215-2.825.02-5.257.036-7.025.056-3.057.035-6.847.07-10.701.104-5.881.054-11.999.108-15.334.162-1.202.02-2.467.043-3.837.068-3.811.069-8.383.151-14.704.211-6.691.063-10.719.048-15.025.001-1.747-.019-3.277-.111-4.848-.207-2.232-.136-4.565-.277-7.732-.223-.74.012-1.529.038-2.356.065-1.518.05-3.139.103-4.814.087a40 40 0 0 1-1.601-.055 34 34 0 0 0-1.715-.053c-2.301.001-4.552.014-6.541.026-2.56.016-4.711.028-6.046.01-2.379-.035-4.99.01-7.625.055-2.011.034-4.043.07-6.013.07-5.63 0-13.366.093-21.339.233-3.019.053-5.576 0-8.849-.07-2.035-.042-4.35-.09-7.233-.123-1.634-.018-3.015.04-4.294.093-1.178.05-2.269.095-3.388.074-.988-.018-1.611-.107-2.206-.191-.664-.094-1.289-.182-2.332-.162-.555.01-1.23.058-2.031.114l-1.014.07q.025-.03.023-.048c.001-.088-1.062-.131-2.104-.174-.416-.017-.83-.033-1.17-.053-1.254-.071-3.61-.077-5.43-.068-.77.003-1.468-.022-2.281-.052-.722-.026-1.535-.055-2.571-.07a34 34 0 0 1-1.418-.054c-.272-.015-.502-.027-.716-.03-.186-.003-.335.023-.503.052-.121.02-.252.043-.414.058-.385.036-.881.047-1.228.037a9 9 0 0 1-.414-.023 8 8 0 0 0-.493-.026c-.924-.015-1.812.016-2.752.048a60 60 0 0 1-3.305.051 48 48 0 0 1-1.165-.04 39 39 0 0 0-1.134-.039c-1.36-.016-2.636.05-3.807.112-.779.04-1.513.079-2.194.09a22 22 0 0 0-2.428.152c-.259.03-.47.054-.691.062l-.61-.006c-.185-.005-.376-.01-.555-.008l-.04.001a452 452 0 0 1-3.327-.06c-2.466-.051-4.859-.102-7.444-.062-.558.008-1.125.041-1.702.075-.706.04-1.428.082-2.162.081-1.75-.001-3.51-.048-5.236-.093-2.573-.069-5.178-.135-7.522-.047-.776.03-1.531.076-2.287.124q-.632.04-1.271.077c.09-.042.138-.08.183-.117.093-.075.172-.139.582-.194.968-.13 2.07-.31 1.947-.438-.033-.035-.006-.074.023-.113.073-.098.147-.198-.755-.241-.608-.029-2.167-.094-3.154-.016-.215.017-.346.05-.491.086-.262.065-.574.143-1.506.164l-.504.01c-.711.011-1.52.025-1.819.078-.345.06-.271.13-.185.209.112.104.246.227-.498.378-.147.03-.428.041-.64.05-.149.005-.263.01-.275.019-.012.01.035.031.096.058.215.093.586.258-.965.27-.419.002-.898-.004-1.327-.01-.632-.008-1.156-.015-1.226.012a.2.2 0 0 0-.06.033l-1.504-.005c-.642-.03-1.541-.025-2.66-.018l-.853.005-2.997-.01q-1.19-.017-2.519-.064a126 126 0 0 1-4.797-.287c-.628-.046-1.249-.092-1.877-.133.244-.007.465-.014.636-.023 1.165-.063 1.635-.182 2.067-.292a6 6 0 0 1 1.009-.186c.824-.083.742-.176.681-.245-.032-.036-.056-.066.054-.084.089-.014.293-.021.505-.029.184-.006.375-.013.497-.025 1.482-.141 1.036-.22.387-.333-.357-.063-.775-.137-.966-.238-.165-.107-.11-.139.666-.184l-1.811-.154a3 3 0 0 0-.667.094c-.449.1-1.908.14-3.04.172-.533.015-1.008.028-1.272.044-1.407.085-.996.196-.636.293.198.054.381.104.239.143-.061.017.026.033.114.05.067.012.137.025.139.038.019.098-.814.174-1.583.244-.44.04-.86.079-1.091.119a3 3 0 0 0-.179.037 3 3 0 0 1-.269.048c-.266.033-.815.057-1.415.082-.307.013-.628.027-.931.043-.392.02-.533.06-.682.1a2.6 2.6 0 0 1-.417.085c-.367.045-1.106.063-1.789.08-.297.008-.585.015-.827.024-.098.004-.146.01-.156.02l-3.291.104c-5.318.172-9.865.32-16.696.249a166 166 0 0 0-4.063.014c-4.58-.021-8.899-.044-13.486-.067a62 62 0 0 0-3.236-.208c-2.303-.1-4.963-.112-7.844-.128a860 860 0 0 1-3.39-.022 437 437 0 0 1-3.997-.05c-4.637-.081-9.558-.145-15.009-.162-5.449-.016-11.565-.014-16.087.003-2.364.008-4.926-.054-7.274-.111-3.163-.082-6.356-.15-8.037-.003-.596.048-1.174.127-1.725.204a39 39 0 0 1-1.151.15c-1.008-.004-1.932-.008-2.959-.01-1.861-.075-4.493-.147-7.225-.02-1.02-.002-2.005-.005-3.046-.006l-6.413-.006-2.143.001h-.02c-1.369 0-2.897.004-4.253.007-.55 0-1.24.003-1.832.005-1.487.005-3.082.014-4.596.024-.84.007-1.564.012-2.436.021-1.299.013-2.597.03-3.97.056-2.122.047-4.263.07-6.36.265-.359.038-.669.076-.905.107-.239.031-.38.043-.387.013-.006-.027.118-.094.354-.171.233-.076.548-.144.91-.192 2.121-.255 4.256-.332 6.383-.436 1.376-.06 2.67-.111 3.971-.158l2.437-.084c1.513-.05 3.111-.097 4.6-.14.592-.018 1.28-.036 1.83-.052 1.362-.039 2.891-.078 4.266-.113h.026l2.128-.053c2.078-.052 4.252-.103 6.416-.15l3.442-.076 1.958-.042 1.04-.021a6416 6416 0 0 1 24.222-.455c8.07-.138 16.278-.266 24.257-.385 4.013-.057 7.56-.11 11.575-.165 4.076-.058 8.595-.117 12.69-.171a28073 28073 0 0 1 205.927-1.896"/></svg>
